media/ico/ico_return.svg

<svg width="96" height="96" viewBox="0 0 96 96" fill="none" xmlns="http://www.w3.org/2000/svg">
<path d="M28 8L4 32L28 56V36H66C75.9182 36 84 44.0818 84 54C84 63.9182 75.9182 72 66 72H60V80H66C80.2818 80 92 68.2818 92 54C92 39.7182 80.2818 28 66 28H28V8ZM12 72V80H20V72H12ZM28 72V80H36V72H28ZM44 72V80H52V72H44Z" fill="#4F4AFF"/>
</svg>

<?xml version="1.0" encoding="utf-8"?>
<!-- Generator: Adobe Illustrator 28.0.0, SVG Export Plug-In . SVG Version: 6.00 Build 0)  -->
<svg version="1.1" id="Layer_1" xmlns="http://www.w3.org/2000/svg" xmlns:xlink="http://www.w3.org/1999/xlink" x="0px" y="0px"
	 viewBox="0 0 96 96" style="enable-background:new 0 0 96 96;" xml:space="preserve">
<style type="text/css">
	.st0{fill:#B3B3B3;}
</style>
<path class="st0" d="M28,8L4,32l24,24V36h38c9.9,0,18,8.1,18,18s-8.1,18-18,18h-6v8h6c14.3,0,26-11.7,26-26S80.3,28,66,28H28V8z
	 M12,72v8h8v-8H12z M28,72v8h8v-8H28z M44,72v8h8v-8H44z"/>
</svg>
